X:1
T:L'arabesque
T:L'arabesque
T:Burgmüller
C:Burgmüller
%%score { 1 | 2 }
L:1/8
M:2/4
K:C
V:1 treble nm="Piano" snm="Pno."
V:2 bass 
V:1
!p! z4 | z4 |: (A/B/c/B/ .A) z | (A/B/c/d/ .e) z | (d/e/f/g/ .a) z | (a/b/c'/d'/ e') z | z .e (ef | %7
 .d) z (!>!c2 | (d)g de) |1 c z e2 :|2 (c2 c') z |:!f! (e3 B) | (c3 A) | (e3 B) | (c3 A) | (a3 e) | %16
 (f3 e) | (dc BA) | (^G2 e2) | A/B/c/B/ .A z | A/B/c/d/ .e z | d/e/f/g/ .a z | a/b/c'/d'/ .e' z | %23
!p! z .B (Bc) | (A2 (!>!e2) | f).B (Bd) |1 A2 z2 :|2 (A/B/c/B/ .A) z || (d/e/f/g/ a) z | %29
 (a/b/c'/b/ .a) z | (d'/e'/f'/g'/ .a') z |!f! E/D/C/B,/ .A, z | !fermata![ca]4 |] %33
V:2
 .[A,CE]2 .[A,CE]2 | .[A,CE]2 .[A,CE]2 |: .[A,CE]2 .[A,CE]2 | .[A,CE]2 .[A,CE]2 | %4
 .[A,DF]2 .[A,DF]2 | .[A,CE]2 .[A,CE]2 | .[G,CE]2 .[G,CE]2 | .[G,B,F]2 .[G,B,F]2 | %8
 .[G,B,F]2 .[G,B,F]2 |1 [CE] z E2 :|2 [CE]3 z |: (^G,/A,/B,/A,/ .G,) z | (A,/B,/C/D/ .E) z | %13
 (^G,/A,/B,/A,/ .G,) z | (A,/B,/C/D/ .E) z | (^C/D/E/D/ .C) z |[K:treble] (D/E/F/G/) (AG) | %17
 (FE D^D) | (E=D CB,) |[K:bass] .[A,CE]2 .[A,CE]2 | .[A,CE]2 .[A,CE]2 | .[A,DF]2 .[A,DF]2 | %22
 .[A,CE]2 .[A,CE]2 | .[A,DE]2 .[A,DE]2 | .[A,CE]2 .[A,CE]2 | .[A,DE]2 .[A,DE]2 |1 %26
 .[A,CE]2 .[A,CE]2 :|2 .[A,CE]2 .[A,CE]2 || .[A,DF]2 .[A,DF]2 | .[A,CE]2 .[A,CE]2 | %30
 .[A,DF]2 .[A,DF]2 | E,/D,/C,/B,,/ .A,, z | !fermata![A,E]4 |] %33

